svg/nature/butterfly_2_line.svg

<svg xmlns="http://www.w3.org/2000/svg" width="24" height="24" viewBox="0 0 24 24"><g fill="none" fill-rule="evenodd"><path d="M24,0 L24,24 L0,24 L0,0 L24,0 Z M12.5935,23.2578 L12.5819,23.2595 L12.5109,23.295 L12.4919,23.2987 L12.4767,23.295 L12.4057,23.2595 C12.3958,23.2564 12.387,23.259 12.3821,23.2649 L12.378,23.2758 L12.3609,23.7031 L12.3659,23.7235 L12.3769,23.7357 L12.4805,23.8097 L12.4953,23.8136 L12.5071,23.8097 L12.6107,23.7357 L12.6233,23.7197 L12.6267,23.7031 L12.6096,23.2758 C12.6076,23.2657 12.601,23.2593 12.5935,23.2578 Z M12.8584,23.1453 L12.8445,23.1473 L12.6598,23.2397 L12.6499,23.2499 L12.6472,23.2611 L12.6651,23.6906 L12.6699,23.7034 L12.6784,23.7105 L12.8793,23.8032 C12.8914,23.8069 12.9022,23.803 12.9078,23.7952 L12.9118,23.7812 L12.8777,23.1665 C12.8753,23.1546 12.8674,23.147 12.8584,23.1453 Z M12.143,23.1473 C12.1332,23.1424 12.1222,23.1453 12.1156,23.1526 L12.1099,23.1665 L12.0758,23.7812 C12.0751,23.7927 12.0828,23.8019 12.0926,23.8046 L12.1083,23.8032 L12.3092,23.7105 L12.3186,23.7024 L12.3225,23.6906 L12.3404,23.2611 L12.3372,23.2485 L12.3278,23.2397 L12.143,23.1473 Z"/><path fill="#09244B" d="M7.78317,4.01585 C9.22672,4.27831 10.7111,5.01563 12.0001,6.14809 C13.2891,5.01563 14.7734,4.27831 16.217,4.01585 C17.8439,3.72005 19.5228,4.02011 20.6992,5.19642 C21.8524,6.34968 22.1637,7.98747 21.8963,9.58348 C21.6567,11.0142 20.9476,12.4891 19.8494,13.7777 C19.9479,14.1695 20.0001,14.579 20.0001,14.9997 C20.0001,17.7612 17.7615,19.9997 15.0001,19.9997 C13.8745,19.9997 12.8353,19.6271 12.0001,19 C11.1648,19.6271 10.1256,19.9997 9.00006,19.9997 C6.23864,19.9997 4.00006,17.7612 4.00006,14.9997 C4.00006,14.579 4.05224,14.1695 4.15072,13.7777 C3.05252,12.4891 2.34348,11.0142 2.1038,9.58347 C1.83643,7.98747 2.14773,6.34967 3.30099,5.19642 C4.47729,4.02011 6.15625,3.72005 7.78317,4.01585 Z M4.7152,6.61063 C5.29625,6.02958 6.23718,5.76755 7.4254,5.98359 C8.44415,6.16882 9.56893,6.70028 10.5917,7.57401 C10.5715,7.59215 10.5516,7.61052 10.5321,7.6291 C10.1686,7.97498 9.88682,8.4282 9.67191,8.91175 C9.24097,9.88137 8.99994,11.1508 8.99994,12.4999 C8.99994,13.8489 9.24097,15.1184 9.67191,16.088 C9.88682,16.5715 10.1686,17.0248 10.5321,17.3706 C10.5761,17.4125 10.6219,17.4534 10.6696,17.4928 C10.1921,17.8134 9.61812,17.9997 9.00006,17.9997 C7.34321,17.9997 6.00006,16.6566 6.00006,14.9997 C6.00006,14.6097 6.07398,14.2394 6.20766,13.9002 C6.3508,13.5371 6.26955,13.1239 5.99959,12.8419 C4.91149,11.7056 4.26961,10.4068 4.07631,9.25303 C3.88247,8.09592 4.14505,7.18079 4.7152,6.61063 Z M13.3304,17.4928 C13.8079,17.8134 14.3819,17.9997 15.0001,17.9997 C16.6569,17.9997 18.0001,16.6566 18.0001,14.9997 C18.0001,14.6097 17.9261,14.2394 17.7925,13.9003 C17.6493,13.5371 17.7306,13.1239 18.0005,12.8419 C19.0886,11.7056 19.7305,10.4069 19.9238,9.25303 C20.1177,8.09592 19.8551,7.18079 19.2849,6.61063 C18.7039,6.02958 17.763,5.76755 16.5747,5.98359 C15.5559,6.16883 14.4311,6.70032 13.4083,7.57412 C13.4285,7.59223 13.4483,7.61056 13.4678,7.6291 C13.8313,7.97498 14.1131,8.4282 14.328,8.91175 C14.7589,9.88137 14.9999,11.1508 14.9999,12.4999 C14.9999,13.8489 14.7589,15.1184 14.328,16.088 C14.1131,16.5715 13.8313,17.0248 13.4678,17.3706 C13.4238,17.4125 13.378,17.4533 13.3304,17.4928 Z M10.9999,12.4999 C10.9999,11.3636 11.2066,10.3831 11.4995,9.72402 C11.6466,9.39323 11.7957,9.18745 11.9108,9.07789 C11.9903,9.00231 12.0096,9.00231 12.089,9.07789 C12.2042,9.18745 12.3533,9.39323 12.5003,9.72402 C12.7933,10.3831 12.9999,11.3636 12.9999,12.4999 C12.9999,13.6361 12.7933,14.6166 12.5003,15.2757 C12.3533,15.6065 12.2042,15.8123 12.089,15.9218 C12.0096,15.9974 11.9903,15.9974 11.9108,15.9218 C11.7957,15.8123 11.6466,15.6065 11.4995,15.2757 C11.2066,14.6166 10.9999,13.6361 10.9999,12.4999 Z"/></g></svg>

<svg xmlns="http://www.w3.org/2000/svg" width="24" height="24"><g fill="none" fill-rule="evenodd"><path d="M24 0v24H0V0zM12.594 23.258l-.012.002-.071.035-.02.004-.014-.004-.071-.036c-.01-.003-.019 0-.024.006l-.004.01-.017.428.005.02.01.013.104.074.015.004.012-.004.104-.074.012-.016.004-.017-.017-.427c-.002-.01-.009-.017-.016-.018m.264-.113-.014.002-.184.093-.01.01-.003.011.018.43.005.012.008.008.201.092c.012.004.023 0 .029-.008l.004-.014-.034-.614c-.003-.012-.01-.02-.02-.022m-.715.002a.023.023 0 0 0-.027.006l-.006.014-.034.614c0 .012.007.02.017.024l.015-.002.201-.093.01-.008.003-.011.018-.43-.003-.012-.01-.01z"/><path fill="#09244B" d="M7.783 4.016c1.444.262 2.928 1 4.217 2.132 1.29-1.132 2.773-1.87 4.217-2.132 1.627-.296 3.306.004 4.482 1.18 1.153 1.154 1.465 2.791 1.197 4.387-.24 1.431-.948 2.906-2.047 4.195A5 5 0 0 1 12 19a5 5 0 0 1-7.85-5.222c-1.096-1.289-1.806-2.764-2.045-4.195-.268-1.596.044-3.233 1.197-4.387C4.477 4.02 6.156 3.72 7.783 4.016M4.715 6.61c.581-.581 1.522-.843 2.71-.627 1.02.185 2.144.716 3.167 1.59a2.75 2.75 0 0 0-.06.055c-.363.346-.645.8-.86 1.283C9.24 9.882 9 11.15 9 12.5c0 1.349.241 2.618.672 3.588.215.483.497.937.86 1.283.044.042.09.082.138.122A3 3 0 0 1 6.208 13.9 1 1 0 0 0 6 12.842c-1.089-1.136-1.73-2.435-1.924-3.589-.194-1.157.07-2.072.64-2.642m8.615 10.882a3 3 0 0 0 4.462-3.592A1 1 0 0 1 18 12.84c1.089-1.135 1.73-2.434 1.924-3.588.194-1.157-.069-2.072-.64-2.642-.58-.581-1.521-.843-2.71-.627-1.018.185-2.143.716-3.166 1.59l.06.055c.363.346.645.8.86 1.283.43.97.672 2.239.672 3.588 0 1.349-.241 2.618-.672 3.588-.215.483-.497.937-.86 1.283-.044.042-.09.082-.138.122M11 12.5c0-1.136.207-2.117.5-2.776.147-.33.296-.537.41-.646.08-.076.1-.076.179 0 .115.11.264.315.411.646.293.66.5 1.64.5 2.776s-.207 2.117-.5 2.776c-.147.33-.296.536-.411.646-.08.075-.099.075-.178 0-.115-.11-.264-.316-.412-.646-.292-.66-.5-1.64-.5-2.776"/></g></svg>
